X:1
T:Smyth, 77.77 D
T:Smyth, 77.77 D
T:Julian Kennedy Smyth (1856-1921)
T:Public Domain Courtesy of the Cyber Hymnal™
C:Julian Kennedy Smyth (1856-1921)
Z:Public Domain
Z:Courtesy of the Cyber Hymnal™
%%score ( 1 2 ) ( 3 4 )
L:1/8
Q:1/4=180
M:3/2
K:D
V:1 treble 
V:2 treble 
V:3 bass 
V:4 bass 
V:1
 [DF]2 [DF]2 [DF]4 [DF]4 | [CG]2 [B,G]2 ([CG]4 [D^G]4) | [DA]2 [DA]2 [Dd]4 [DA]4 | %3
 [DF]2 [DG]2 ([DF]4 [CE]4) | [DG]2 [DG]2 [DG]4 [DG]4 | [CF]2 [CE]2 [B,D]8 | %6
 [DF]2 [DF]2 [E^G]4 [Dc]4 | [DB]2 [CA]2 (A4 G4) | [DF]2 [DF]2 [DF]4 [DF]4 | %9
 [CG]2 [B,G]2 [CG]4 [D^G]4 | [DA]2 [DA]2 [Dd]4 [DA]4 | [DF]2 [DG]2 ([DF]4 [CE]4) | %12
 [DB]2 [DB]2 [DA]4 [DA]4 | [D^G]2 [DG]2 =G8 | [DF]2 [DF]2 [DF]4 (A2 G2) | [DF]8 [CE]4 | D8 x4 |] %17
V:2
 x12 | x12 | x12 | x12 | x12 | x12 | x12 | x4 C8 | x12 | x12 | x12 | x12 | x12 | x4 (D4 C4) | %14
 x8 D4 | x12 | D12 |] %17
V:3
 [D,A,]2 [D,A,]2 [D,A,]4 [D,A,]4 | [E,A,]2 [E,A,]2 ([E,A,]4 [=F,B,]4) | [F,A,]2 [F,A,]2 F,8 | %3
 [G,,B,]2 [G,,B,]2 [A,,A,]8 | [E,B,]2 [E,B,]2 [E,B,]4 [E,B,]4 | [F,^A,]2 [F,A,]2 [B,,F,]8 | %6
 [B,,B,]2 [B,,B,]2 [B,,D]4 [E,^G,]4 | [A,,E,]2 [A,,E,]2 (E,4 A,4) | %8
 [D,A,]2 [D,A,]2 [D,A,]4 [D,A,]4 | [E,A,]2 [E,A,]2 [E,A,]4 [=F,B,]4 | %10
 [F,A,]2 [F,A,]2 [B,,F,]4 [A,,F,]4 | [G,,B,]2 [G,,B,]2 [A,,A,]8 | G,2 G,2 [F,A,]4 [F,A,]4 | %13
 [=F,B,]2 [F,B,]2 (B,4 A,4) | [D,A,]2 [D,A,]2 [B,,B,]4 [G,,B,]4 | [A,,A,]8 [A,,G,]4 | [D,F,]12 |] %17
V:4
 x12 | x12 | x4 B,,4 A,,4 | x12 | x12 | x12 | x12 | x4 A,,8 | x12 | x12 | x12 | x12 | G,2 G,2 x8 | %13
 x4 E,8 | x12 | x12 | x12 |] %17

